X:1
T:Gentle Annie
T:Stephen Collins Foster (1826-1864)
T:SATB
T:Gentle Annie 1856
T:Finale-Eingabe: John Christensen Copyleft 2016
T:Finale-Eingabe: John Christensen Copyleft 2016
T:Finale-Eingabe: John Christensen Copyleft 2016
T:Finale-Eingabe: John Christensen Copyleft 2016
T:Finale-Eingabe: John Christensen Copyleft 2016
T:Finale-Eingabe: John Christensen Copyleft 2016
C:Stephen Collins Foster (1826-1864)
Z:Finale-Eingabe: John Christensen
Z:Copyleft 2016
%%score [ 1 2 3 4 ]
L:1/8
Q:1/4=100
M:4/4
K:Eb
V:1 treble nm="Soprano" snm="S"
V:2 treble nm="Alto" snm="A"
V:3 treble-8 nm="Tenor" snm="T"
V:4 bass nm="Bass" snm="B"
V:1
"^Andante Mosso" GF | E2 E2 F2 EF | G e3 z2 dc | B3 c EE F>G | F4 z2 GF | E2 E2 F2 EF | %6
w: 1. Thou wilt|come no more, gen- tle|An- nie; Like a|flow'r thy spi- rit did de-|part; Thou art|gone, a- las! like the|
w: 2. We have|roamed and loved mid the|bow- ers, When thy|dow- ny cheeks were in their|bloom; Now I|stand a- lone mid the|
w: 3. Ah! the|hours grow sad while I|pon- der Near the|si- lent spot where thou art|laid, And my|heart bows down when I|
 G e3 z2 dc | B2 AG GF E>D | E4 z2 BB | c f3 e3 c | B4 G2 de | G3 F EEFG | F4 z2 GF | E2 E2 F2 EF | %14
w: man- y That have|bloom'd in the sum- mer of my|heart. * *||||||
w: flow- ers While they|min- gle their per- fumes o'er thy|tomb. Shall we|nev- er more be-|hold thee; Nev- er|hear thy win- ning voice a-|gain. When the|Spring time comes, gen- tle|
w: wan- der By the|streams and the mea- dows where we|stray'd. * *||||||
 G e3 z2 dc | B2 AG GF E>D | E6 BB | c f3 e3 c | B4 G2 de | G3 F EEFG | F4 z2 GF | E2 E2 F2 EF | %22
w: ||||||||
w: An- nie, When the|wild flow'rs are scat- ter'd o'er the|plain? Shall we|nev- er more be-|hold thee, Nev- er|hear thy win- ning voice a-|gain; When the|Spring time comes, gen- tle|
w: ||||||||
 G e3 z2 dc | B2 AG GF E>D | E6 z2 |] %25
w: |||
w: An- nie, When the|wild flow'rs are scat- ter'd o'er the|plain!|
w: |||
V:2
 ED | B,2 B,2 D2 B,D | E G3 z2 BA | G3 G =A,A, C>C | D4 z2 ED | B,2 B,2 D2 B,D | E G3 z2 BA | %7
w: 1. Thou wilt|come no- more, gen- tle|An- nie; Like a|flow'r thy spi- rit did de-|part; Thou art|gone, a- las! like the|man- y That have|
w: 2. We have|roamed and loved mid the|bow- ers, When thy|dow- ny cheeks were in their|bloom; Now I|stand a- lone mid the|flow- ers While they|
w: 3. Ah! the|hours grow sad while I|pon- der Near the|si- lent spot where thou art|laid, and my|heart bows down when I|wan- der By the|
 G2 FE ED B,>A, | B,4 z2 GG | A A3 A3 A | E4 E2 FG | E3 E CCCC | D4 z2 ED | B,2 B,2 B,2 B,D | %14
w: bloom'd in the sum- mer of my|heart. * *||||||
w: min- gle their per- fumes o'er thy|tomb. Shall we|nev- er more be-|hold thee; Nev- er|hear thy win- ning voice a-|gain. When the|Spring time comes, gen- tle|
w: streams and the mea- dows where we|stray'd. * *||||||
 E G3 z2 BA | G2 FE DD B,>A, | B,6 GG | A A3 A3 A | G4 E2 FG | E3 D ECCE | D4 z2 DD | %21
w: |||||||
w: An- nie, When the|wild flow'rs are scat- ter'd o'er the|plain? Shall we|nev- er more be-|hold thee, Nev- er|hear thy win- ning voice a-|gain; When the|
w: |||||||
 E2 E2 D2 B,D | E G3 z2 BA | G2 FE ED B,>A, | B,6 z2 |] %25
w: ||||
w: Spring time comes, gen- tle|An- nie, When the|wild flow'rs are scat- ter'd o'er the|plain!|
w: ||||
V:3
 BB | G2 G2 A2 GB | B B3 z2 ee | B3 B FF A>A | B4 z2 BB | G2 G2 A2 GB | B B3 z2 ee | e2 BB BA G>F | %8
w: 1. Thou wilt|come no more, gen- tle|An- nie; Like a|flow'r thy spi- rit did de-|part; Thou art|gone, a- las! like the|man- y That have|bloom'd in the sum- mer of my|
w: 2. We have|roamed and loved mid the|bow- ers, When thy|dow- ny cheeks were in their|bloom; Now I|stand a- lone mid the|flow- ers While they|min- gle their per- fumes o'er thy|
w: 3. Ah! the|hours grow sad while I|pon- der Near the|si- lent spot where thou art|laid, and my|heart bows down when I|wan- der By the|streams and the mea- dows where we|
 G4 z2 ee | e c3 c3 c | G4 B2 BB | c3 c AAAA | F4 z2 BB | G2 G2 A2 GB | B B3 z2 ee | e2 BB BA G>F | %16
w: heart. * *||||||||
w: tomb. Shall we|nev- er more be-|hold thee; Nev- er|hear thy win- ning voice a-|gain. When the|Spring time comes, gen- tle|An- nie, When the|wild flow'rs are scat- ter'd o'er the|
w: stray'd. * *||||||||
 G6 ee | e c3 c3 A | B4 B2 BB | B3 A GG=AA | B4 z2 BA | G2 G2 B2 BB | B B3 z2 ee | e2 BB BA G>F | %24
w: ||||||||
w: plain? Shall we|nev- er more be-|hold thee, Nev- er|hear thy win- ning voice a-|gain; When the|Spring time comes, gen- tle|An- nie, When the|wild flow'rs are scat- ter'd o'er the|
w: ||||||||
 G6 z2 |] %25
w: |
w: plain!|
w: |
V:4
 E,F, | E,2 E,2 B,,2 E,F, | E, E,3 z2 E,E, | E,3 E, C,C, E,>E, | B,,4 z2 E,F, | E,2 E,2 B,,2 E,F, | %6
w: 1. Thou wilt|come no more, gen- tle|An- nie; Like a|flow'r thy spi- rit did de-|part; Thou art|gone, a- las! like the|
w: 2. We have|roamed and loved mid the|bow- ers, When thy|dow- ny cheeks were in their|bloom; Now I|stand a- lone mid the|
w: 3. Ah! the|hours grow sad while I|pon- der Near the|si- lent spot where thou art|laid, and my|heart bows down when I|
 E, E,3 z2 A,,A,, | B,,2 B,,B,, B,,B,, B,,>B,, | E,4 z2 E,E, | A, F,3 A,3 A, | E,4 E,2 B,,B,, | %11
w: man- y That have|bloom'd in the sum- mer of my|heart. * *|||
w: flow- ers While they|min- gle their per- fumes o'er thy|tomb. Shall we|nev- er more be-|hold thee; Nev- er|
w: wan- der By the|streams and the mea- dows where we|stray'd. * *|||
 C,3 C, F,F,F,F, | B,,4 z2 E,F, | E,2 E,2 B,,2 E,F, | E, E,3 z2 A,,A,, | %15
w: ||||
w: hear thy win- ning voice a-|gain. When the|Spring time comes, gen- tle|An- nie, When the|
w: ||||
 B,,2 B,,B,, B,,B,, B,,>B,, | E,6 E,E, | A, A,3 A,2 A,2 | E,4 E,2 B,,B,, | E,3 B,, C,C,F,F, | %20
w: |||||
w: wild flow'rs are scat- ter'd o'er the|plain? Shall we|nev- er more be-|hold thee, Nev- er|hear thy win- ning voice a-|
w: |||||
 B,,4 z2 B,,B,, | E,2 E,2 B,,2 G,,B,, | E, E,3 z2 A,,A,, | B,,2 D,D, D,D, D,>D, | E,6 z2 |] %25
w: |||||
w: gain; When the|Spring time comes, gen- tle|An- nie, When the|wild flow'rs are scat- ter'd o'er the|plain!|
w: |||||

